src/pages/projects/mintcraft/assets/sounds_pack.svg

<svg viewBox="0 0 2000 500" xmlns="http://www.w3.org/2000/svg" xml:space="preserve" style="fill-rule:evenodd;clip-rule:evenodd;stroke-linejoin:round;stroke-miterlimit:2"><g transform="scale(7.8125)"><path d="M0 0h64v64H0z"/><clipPath id="a"><path d="M0 0h64v64H0z"/></clipPath><g clip-path="url(#a)"><g opacity=".25"><path style="fill:#7f7f7f;fill-opacity:.5" d="M0 0h4v1H0z" transform="matrix(21.5 12.413 0 99.3042 -54 -18)"/><path style="fill:#7f7f7f;fill-opacity:.75" d="M0 0h4v1H0z" transform="matrix(21.5 -12.413 0 99.3042 32 31.652)"/><path style="fill:#7f7f7f" d="M0 0h4v1H0z" transform="matrix(21.5 -12.413 86 49.6521 -54 -17.652)"/></g><path style="fill:#eee" d="M39 29h2v6h-2z"/><path d="M25 27h-6v10h6v-2h-4v-6h4v-2Z" style="fill:#d92"/><path d="M43 27v10h-4v2h4v-2h2V27h-2Zm0-2h-4v2h4v-2Z" style="fill:#eee"/><path d="M27 23v2h-2v14h2v2h2v2h2v2h6V19h-6v2h-2v2h-2Zm0 14V27h2v-2h2v-2h2v-2h2v22h-2v-2h-2v-2h-2v-2h-2Z" style="fill:#fb2"/><path d="M64 0H0v64h64V0Zm-1.633 1.633v60.734H1.633V1.633h60.734Z" style="fill:url(#b)"/></g></g><g opacity=".25"><path style="fill:url(#c)" d="M0 0h4v1H0z" transform="matrix(187.5 108.2529 0 866.02498 500 -185.889)"/><path style="fill:url(#d)" d="M0 0h4v1H0z" transform="matrix(187.5 -108.2529 0 866.02498 1250 247.124)"/><path style="fill:url(#e)" d="M0 0h4v1H0z" transform="matrix(187.5 -108.2529 749.99998 433.01249 500 -185.889)"/></g><path d="M30.286 32v17h3.428V32h-3.428Z" style="fill:url(#f)" transform="matrix(7.41667 0 0 10.4706 512.667 -174.059)"/><path d="M30.286 32v17h3.428V32h-3.428Z" style="fill:#fb2" transform="matrix(0 -7.41667 10.4706 0 325.941 487.333)"/><path d="M-18.003 58.743h-5.029V60h5.029v-1.257Zm1.257 0v-2.515h-1.257v2.515h1.257Zm-5.028-2.515h3.771v-1.257h-3.771v1.257Zm0-1.257v-2.515h-1.258v2.515h1.258Zm5.028-3.772h-5.028v1.257h5.028v-1.257Zm6.274 2.514h-3.771v1.258h3.771v3.772h-3.771V60h3.771v-1.257h1.257v-3.772h-1.257v-1.258Zm-5.029 1.258v3.772h1.258v-3.772h-1.258ZM-1.683 60v-6.287h-1.258v5.03h-3.771V60h5.029Zm-5.029-1.257v-5.03h-1.257v5.03h1.257ZM5.848 60v-5.029H4.59V60h1.258ZM.819 60v-5.029H4.59v-1.258H-.438V60H.819Zm7.531 0h5.029v-8.801h-1.257v2.514H8.35v1.258h3.772v3.772H8.35V60Zm-1.257-5.029v3.772H8.35v-3.772H7.093Zm12.572 3.772h-5.028V60h5.028v-1.257h1.258v-1.258h-1.258v1.258Zm0-2.515h-3.771v1.257h3.771v-1.257Zm-3.771-1.257h-1.257v1.257h1.257v-1.257Zm5.029-1.258h-5.029v1.258h5.029v-1.258Z" style="fill:#eee;fill-rule:nonzero" transform="matrix(20.2435 0 0 20.2248 1356.1 -874.486)"/><defs><linearGradient id="b" x1="0" y1="0" x2="1" y2="0" gradientUnits="userSpaceOnUse" gradientTransform="matrix(64 64 -64 64 0 0)"><stop offset="0" style="stop-color:#eee;stop-opacity:.11"/><stop offset="1" style="stop-color:#111;stop-opacity:0"/></linearGradient><linearGradient id="c" x1="0" y1="0" x2="1" y2="0" gradientUnits="userSpaceOnUse" gradientTransform="matrix(0 .57735 -2.66667 .33333 4 -.285)"><stop offset="0" style="stop-color:#7f7f7f;stop-opacity:.5"/><stop offset="1" style="stop-color:#7f7f7f;stop-opacity:0"/></linearGradient><linearGradient id="d" x1="0" y1="0" x2="1" y2="0" gradientUnits="userSpaceOnUse" gradientTransform="matrix(0 .57735 -2.66667 -.33333 0 -.285)"><stop offset="0" style="stop-color:#7f7f7f;stop-opacity:.75"/><stop offset="1" style="stop-color:#7f7f7f;stop-opacity:0"/></linearGradient><linearGradient id="e" x1="0" y1="0" x2="1" y2="0" gradientUnits="userSpaceOnUse" gradientTransform="matrix(-2.3094 .57735 -1.33333 -.33333 1.141 .715)"><stop offset="0" style="stop-color:#7f7f7f;stop-opacity:1"/><stop offset="1" style="stop-color:#7f7f7f;stop-opacity:0"/></linearGradient><linearGradient id="f" x1="0" y1="0" x2="1" y2="0" gradientUnits="userSpaceOnUse" gradientTransform="matrix(0 -17 24 0 32 49)"><stop offset="0" style="stop-color:#d92;stop-opacity:1"/><stop offset="1" style="stop-color:#960;stop-opacity:1"/></linearGradient></defs></svg>

<?xml version="1.0" encoding="UTF-8" standalone="no"?>
<!DOCTYPE svg PUBLIC "-//W3C//DTD SVG 1.1//EN" "http://www.w3.org/Graphics/SVG/1.1/DTD/svg11.dtd">
<svg width="100%" height="100%" viewBox="0 0 2000 500" version="1.1" xmlns="http://www.w3.org/2000/svg" xmlns:xlink="http://www.w3.org/1999/xlink" xml:space="preserve" xmlns:serif="http://www.serif.com/" style="fill-rule:evenodd;clip-rule:evenodd;stroke-linejoin:round;stroke-miterlimit:2;">
    <g transform="matrix(7.8125,0,0,7.8125,1.13687e-13,0)">
        <rect x="0" y="0" width="64" height="64"/>
        <clipPath id="_clip1">
            <rect x="0" y="0" width="64" height="64"/>
        </clipPath>
        <g clip-path="url(#_clip1)">
            <g opacity="0.25">
                <g transform="matrix(21.5,12.413,4.26996e-15,99.3042,-54,-18)">
                    <rect x="0" y="0" width="4" height="1" style="fill:rgb(127,127,127);fill-opacity:0.5;"/>
                </g>
                <g transform="matrix(21.5,-12.413,-4.26996e-15,99.3042,32,31.6521)">
                    <rect x="0" y="0" width="4" height="1" style="fill:rgb(127,127,127);fill-opacity:0.75;"/>
                </g>
                <g transform="matrix(21.5,-12.413,86,49.6521,-54,-17.6521)">
                    <rect x="0" y="0" width="4" height="1" style="fill:rgb(127,127,127);"/>
                </g>
            </g>
            <g transform="matrix(1,0,0,1,4,-6)">
                <g transform="matrix(1,0,0,1,-4,6)">
                    <rect x="39" y="29" width="2" height="6" style="fill:rgb(238,238,238);"/>
                </g>
                <g transform="matrix(1,0,0,1,-4,6)">
                    <path d="M25,27L19,27L19,37L25,37L25,35L21,35L21,29L25,29L25,27Z" style="fill:rgb(221,153,34);"/>
                </g>
                <g transform="matrix(1,0,0,1,-4,6)">
                    <path d="M43,27L43,37L39,37L39,39L43,39L43,37L45,37L45,27L43,27ZM43,25L39,25L39,27L43,27L43,25Z" style="fill:rgb(238,238,238);"/>
                </g>
                <g transform="matrix(1,0,0,1,-4,6)">
                    <path d="M27,23L27,25L25,25L25,39L27,39L27,41L29,41L29,43L31,43L31,45L37,45L37,19L31,19L31,21L29,21L29,23L27,23ZM27,37L27,27L29,27L29,25L31,25L31,23L33,23L33,21L35,21L35,43L33,43L33,41L31,41L31,39L29,39L29,37L27,37Z" style="fill:rgb(255,187,34);"/>
                </g>
            </g>
            <path d="M64,0L0,0L0,64L64,64L64,0ZM62.367,1.633L62.367,62.367L1.633,62.367L1.633,1.633L62.367,1.633Z" style="fill:url(#_Linear2);"/>
        </g>
    </g>
    <g transform="matrix(8.72093,0,0,8.72093,970.93,-28.9118)">
        <g opacity="0.25">
            <g transform="matrix(21.5,12.413,4.26996e-15,99.3042,-54,-18)">
                <rect x="0" y="0" width="4" height="1" style="fill:url(#_Linear3);"/>
            </g>
            <g transform="matrix(21.5,-12.413,-4.26996e-15,99.3042,32,31.6521)">
                <rect x="0" y="0" width="4" height="1" style="fill:url(#_Linear4);"/>
            </g>
            <g transform="matrix(21.5,-12.413,86,49.6521,-54,-18)">
                <rect x="0" y="0" width="4" height="1" style="fill:url(#_Linear5);"/>
            </g>
        </g>
    </g>
    <g transform="matrix(7.41667,0,0,10.4706,512.667,-174.059)">
        <path d="M30.286,32L30.286,49L33.714,49L33.714,32L30.286,32Z" style="fill:url(#_Linear6);"/>
    </g>
    <g transform="matrix(4.5414e-16,-7.41667,10.4706,6.41139e-16,325.941,487.333)">
        <path d="M30.286,32L30.286,49L33.714,49L33.714,32L30.286,32Z" style="fill:rgb(255,187,34);"/>
    </g>
    <g transform="matrix(20.2435,0,0,20.2248,1356.1,-874.486)">
        <path d="M-18.003,58.743L-23.032,58.743L-23.032,60L-18.003,60L-18.003,58.743ZM-16.746,58.743L-16.746,56.228L-18.003,56.228L-18.003,58.743L-16.746,58.743ZM-21.774,56.228L-18.003,56.228L-18.003,54.971L-21.774,54.971L-21.774,56.228ZM-21.774,54.971L-21.774,52.456L-23.032,52.456L-23.032,54.971L-21.774,54.971ZM-16.746,51.199L-21.774,51.199L-21.774,52.456L-16.746,52.456L-16.746,51.199Z" style="fill:rgb(238,238,238);fill-rule:nonzero;"/>
        <path d="M-10.472,53.713L-14.243,53.713L-14.243,54.971L-10.472,54.971L-10.472,58.743L-14.243,58.743L-14.243,60L-10.472,60L-10.472,58.743L-9.215,58.743L-9.215,54.971L-10.472,54.971L-10.472,53.713ZM-15.501,54.971L-15.501,58.743L-14.243,58.743L-14.243,54.971L-15.501,54.971Z" style="fill:rgb(238,238,238);fill-rule:nonzero;"/>
        <path d="M-1.683,60L-1.683,53.713L-2.941,53.713L-2.941,58.743L-6.712,58.743L-6.712,60L-1.683,60ZM-6.712,58.743L-6.712,53.713L-7.969,53.713L-7.969,58.743L-6.712,58.743Z" style="fill:rgb(238,238,238);fill-rule:nonzero;"/>
        <path d="M5.848,60L5.848,54.971L4.59,54.971L4.59,60L5.848,60ZM0.819,60L0.819,54.971L4.59,54.971L4.59,53.713L-0.438,53.713L-0.438,60L0.819,60Z" style="fill:rgb(238,238,238);fill-rule:nonzero;"/>
        <path d="M8.35,60L13.379,60L13.379,51.199L12.122,51.199L12.122,53.713L8.35,53.713L8.35,54.971L12.122,54.971L12.122,58.743L8.35,58.743L8.35,60ZM7.093,54.971L7.093,58.743L8.35,58.743L8.35,54.971L7.093,54.971Z" style="fill:rgb(238,238,238);fill-rule:nonzero;"/>
        <path d="M19.665,58.743L14.637,58.743L14.637,60L19.665,60L19.665,58.743L20.923,58.743L20.923,57.485L19.665,57.485L19.665,58.743ZM19.665,56.228L15.894,56.228L15.894,57.485L19.665,57.485L19.665,56.228ZM15.894,54.971L14.637,54.971L14.637,56.228L15.894,56.228L15.894,54.971ZM20.923,53.713L15.894,53.713L15.894,54.971L20.923,54.971L20.923,53.713Z" style="fill:rgb(238,238,238);fill-rule:nonzero;"/>
    </g>
    <defs>
        <linearGradient id="_Linear2" x1="0" y1="0" x2="1" y2="0" gradientUnits="userSpaceOnUse" gradientTransform="matrix(64,64,-64,64,0,0)"><stop offset="0" style="stop-color:rgb(238,238,238);stop-opacity:0.11"/><stop offset="1" style="stop-color:rgb(17,17,17);stop-opacity:0"/></linearGradient>
        <linearGradient id="_Linear3" x1="0" y1="0" x2="1" y2="0" gradientUnits="userSpaceOnUse" gradientTransform="matrix(4.86228e-17,0.577351,-2.66667,0.333333,4,-0.285353)"><stop offset="0" style="stop-color:rgb(127,127,127);stop-opacity:0.5"/><stop offset="1" style="stop-color:rgb(127,127,127);stop-opacity:0"/></linearGradient>
        <linearGradient id="_Linear4" x1="0" y1="0" x2="1" y2="0" gradientUnits="userSpaceOnUse" gradientTransform="matrix(2.7795e-16,0.577351,-2.66667,-0.333333,0,-0.285354)"><stop offset="0" style="stop-color:rgb(127,127,127);stop-opacity:0.75"/><stop offset="1" style="stop-color:rgb(127,127,127);stop-opacity:0"/></linearGradient>
        <linearGradient id="_Linear5" x1="0" y1="0" x2="1" y2="0" gradientUnits="userSpaceOnUse" gradientTransform="matrix(-2.3094,0.577351,-1.33333,-0.333333,1.14142,0.714646)"><stop offset="0" style="stop-color:rgb(127,127,127);stop-opacity:1"/><stop offset="1" style="stop-color:rgb(127,127,127);stop-opacity:0"/></linearGradient>
        <linearGradient id="_Linear6" x1="0" y1="0" x2="1" y2="0" gradientUnits="userSpaceOnUse" gradientTransform="matrix(1.46958e-15,-17,24,1.04095e-15,32,49)"><stop offset="0" style="stop-color:rgb(221,153,34);stop-opacity:1"/><stop offset="1" style="stop-color:rgb(153,102,0);stop-opacity:1"/></linearGradient>
    </defs>
</svg>
